svg/comment_quote.svg

<svg xmlns="http://www.w3.org/2000/svg" viewBox="0 0 24 24"><path d="M20 2H4c-1.1 0-2 .9-2 2v12c0 1.1.9 2 2 2h4v3c0 .6.4 1 1 1h.5c.2 0 .5-.1.7-.3l3.7-3.7H20c1.1 0 2-.9 2-2V4c0-1.1-.9-2-2-2m-9 11H7V8.8L8.3 6h2L8.9 9H11zm6 0h-4V8.8L14.3 6h2l-1.4 3H17z"/></svg>

<?xml version="1.0" encoding="UTF-8"?><!DOCTYPE svg PUBLIC "-//W3C//DTD SVG 1.1//EN" "http://www.w3.org/Graphics/SVG/1.1/DTD/svg11.dtd"><svg xmlns="http://www.w3.org/2000/svg" xmlns:xlink="http://www.w3.org/1999/xlink" version="1.1" id="mdi-comment-quote" width="24" height="24" viewBox="0 0 24 24"><path d="M20 2H4C2.9 2 2 2.9 2 4V16C2 17.1 2.9 18 4 18H8V21C8 21.6 8.4 22 9 22H9.5C9.7 22 10 21.9 10.2 21.7L13.9 18H20C21.1 18 22 17.1 22 16V4C22 2.9 21.1 2 20 2M11 13H7V8.8L8.3 6H10.3L8.9 9H11V13M17 13H13V8.8L14.3 6H16.3L14.9 9H17V13Z" /></svg>
